packages/core/src/svgs/tokens/mono/FIDA.svg

<svg width="24" height="24" viewBox="0 0 24 24" fill="none" xmlns="http://www.w3.org/2000/svg">
<path d="M11.7528 2.34741H12.2634V6.92637H11.7528V2.34741ZM7.33704 14.3316L7.60546 14.7684L3.73704 17.0842L3.47388 16.6527L7.33704 14.3316ZM16.737 14.4106L16.4738 14.8474L20.4002 17.2L20.6634 16.7685L16.737 14.4106Z" fill="white"/>
<path fill-rule="evenodd" clip-rule="evenodd" d="M7.26343 9.38395L12.0003 6.73657L16.7371 9.38395V14.6208L12.0003 17.2628L7.26343 14.6208V9.38395ZM7.78974 9.61551L12.0003 7.26289L16.2107 9.61551V14.2682L12.0056 16.7366L7.78974 14.2682V9.61551Z" fill="white"/>
<path d="M11.7422 11.8472H12.2527V21.8472H11.7422V11.8472Z" fill="white"/>
<path d="M12.3159 11.8474L12.0527 12.2791L3.36328 7.30536L3.62644 6.87378L12.3159 11.8474Z" fill="white"/>
<path d="M11.7371 11.8474L12.0002 12.2791L20.6844 7.30536L20.4212 6.87378L11.7371 11.8474Z" fill="white"/>
<path fill-rule="evenodd" clip-rule="evenodd" d="M3.05273 7.02632L12.0001 2L20.9475 7.02632V16.9789L12.0001 22L3.05273 16.9789V7.02632ZM3.57905 7.26315L12.0001 2.52631L20.4211 7.26315V16.7369L12.0001 21.4736L3.57905 16.7369V7.26315Z" fill="white"/>
</svg>

<svg xmlns="http://www.w3.org/2000/svg" width="24" height="24" fill="none" viewBox="0 0 24 24">
    <path fill="#fff" d="M11.753 2.347h.51v4.58h-.51zM7.337 14.332l.268.436-3.868 2.316-.263-.431zm9.4.079-.263.436L20.4 17.2l.263-.431z"/>
    <path fill="#fff" fill-rule="evenodd" d="M7.263 9.384 12 6.737l4.737 2.647v5.237L12 17.263 7.263 14.62zm.527.232L12 7.263l4.21 2.353v4.652l-4.204 2.469-4.216-2.469z" clip-rule="evenodd"/>
    <path fill="#fff" d="M11.742 11.847h.51v10h-.51z"/>
    <path fill="#fff" d="m12.316 11.847-.263.432-8.69-4.974.263-.431z"/>
    <path fill="#fff" d="m11.737 11.847.263.432 8.684-4.974-.263-.431z"/>
    <path fill="#fff" fill-rule="evenodd" d="M3.053 7.026 12 2l8.948 5.026v9.953L12 22l-8.947-5.021zm.526.237L12 2.526l8.421 4.737v9.474l-8.42 4.737-8.422-4.737z" clip-rule="evenodd"/>
</svg>
